Front-end/assets/images/icons/Butt.svg

<svg width="48" height="48" viewBox="0 0 48 48" fill="none" xmlns="http://www.w3.org/2000/svg">
<path fill-rule="evenodd" clip-rule="evenodd" d="M26 41.9991C26 43.1042 25.1123 44 24 44C22.8954 44 22 43.0984 22 41.9991V27.3809C19.6642 29.6224 16.493 31 13 31C9.89515 31 7.04453 29.9116 4.80889 28.0954C5.12206 30.1779 5.49566 32.1595 5.89468 34.0431C6.33374 36.1158 6.8028 37.9313 7.26989 39.4745C7.43157 40.0086 7.8425 41.2193 7.86626 41.2809C8.2634 42.3117 7.74979 43.4692 6.71908 43.8663C5.68838 44.2634 4.53088 43.7498 4.13374 42.7191C3.98747 42.3395 3.74591 41.6392 3.44142 40.6333C2.94199 38.9833 2.44454 37.0579 1.98152 34.8721C1.22886 31.319 0.572632 27.4347 0.209321 23.2176C0.0754705 21.664 0.0154385 20.1608 0.0191165 18.7111C0.00642673 18.4757 0 18.2386 0 18C0 17.8745 0.0115686 17.7516 0.0336979 17.6325C0.112434 14.4268 0.501807 11.4969 1.08616 8.87871C1.47295 7.14569 1.86911 5.91727 2.15261 5.23378C2.5758 4.21349 3.74598 3.72945 4.76626 4.15265C5.78654 4.57584 6.27058 5.74601 5.84739 6.76629C5.80769 6.86201 5.18688 8.86836 4.99011 9.75002C4.4135 12.3336 4.0392 15.281 4.01612 18.5432C4.29698 23.2609 8.21183 27 13 27C17.9706 27 22 22.9706 22 18C22 16.8955 22.8954 16 24 16C24.5523 16 25.0523 16.2239 25.4142 16.5858C25.7761 16.9478 26 17.4477 26 18C26 22.9706 30.0294 27 35 27C39.9215 27 43.9204 23.0497 43.9988 18.1469C43.9495 15.042 43.5826 12.2285 43.0294 9.75002C42.8326 8.86836 42.2118 6.86201 42.1721 6.76629C41.7489 5.74601 42.2329 4.57584 43.2532 4.15265C44.2735 3.72945 45.4437 4.21349 45.8669 5.23378C46.1504 5.91727 46.5465 7.14569 46.9333 8.87871C47.5275 11.5408 47.92 14.525 47.9895 17.7938C47.9964 17.8616 48 17.9304 48 18C48 18.0899 47.9991 18.1795 47.9973 18.2689C48.0155 19.8545 47.9577 21.5054 47.8102 23.2176C47.4469 27.4347 46.7906 31.319 46.038 34.8721C45.575 37.0579 45.0775 38.9833 44.5781 40.6333C44.2736 41.6392 44.032 42.3395 43.8858 42.7191C43.4886 43.7498 42.3311 44.2634 41.3004 43.8663C40.2697 43.4692 39.7561 42.3117 40.1532 41.2809C40.177 41.2193 40.5879 40.0086 40.7496 39.4745C41.2167 37.9313 41.6858 36.1158 42.1248 34.0431C42.525 32.154 42.8996 30.1665 43.2133 28.0773C40.9744 29.9043 38.1151 31 35 31C31.507 31 28.3358 29.6224 26 27.3809V41.9991Z" fill="black"/>
</svg>

<svg width="48" height="48" fill="none" xmlns="http://www.w3.org/2000/svg"><path fill-rule="evenodd" clip-rule="evenodd" d="M26 42c0 1.104-.888 2-2 2-1.105 0-2-.902-2-2V27.38A12.956 12.956 0 0113 31a12.946 12.946 0 01-8.191-2.905 101.08 101.08 0 001.086 5.948 66.267 66.267 0 001.375 5.431c.162.535.573 1.745.596 1.807a2 2 0 11-3.732 1.438c-.147-.38-.388-1.08-.693-2.086a70.905 70.905 0 01-1.46-5.76C1.23 31.318.574 27.434.21 23.217a50.988 50.988 0 01-.19-4.507A13.21 13.21 0 010 18c0-.125.012-.248.034-.367a45.309 45.309 0 011.052-8.754c.387-1.733.783-2.962 1.067-3.645a2 2 0 113.694 1.532c-.04.096-.66 2.102-.857 2.984-.577 2.584-.95 5.531-.974 8.793A9 9 0 0022 18a2 2 0 014 0 9 9 0 0017.999.147 41.61 41.61 0 00-.97-8.397c-.196-.882-.817-2.888-.857-2.984a2 2 0 113.695-1.532c.283.683.68 1.912 1.066 3.645a45.365 45.365 0 011.056 8.915A2 2 0 0148 18c0 .09 0 .18-.003.269a50.849 50.849 0 01-.187 4.949c-.363 4.217-1.02 8.101-1.772 11.654a70.287 70.287 0 01-1.46 5.761 32.572 32.572 0 01-.692 2.086 2 2 0 01-3.733-1.438 67.82 67.82 0 00.597-1.806 66.285 66.285 0 001.375-5.432c.4-1.889.775-3.877 1.088-5.966A12.946 12.946 0 0135 31a12.956 12.956 0 01-9-3.62V42z" fill="#000"/></svg>
